localPackages/DesignSystem/Sources/DesignSystem/Resources/Assets.xcassets/IconSet/ic-folder.imageset/ic-folder.svg

<svg width="24" height="24" viewBox="0 0 24 24" fill="none" xmlns="http://www.w3.org/2000/svg">
<g id="ic-folder">
<path id="Icon" fill-rule="evenodd" clip-rule="evenodd" d="M21 18V8.25C21 7.42157 20.3284 6.75 19.5 6.75H12.85C12.4605 6.75 12.0816 6.62368 11.77 6.39L9.65 4.8C9.39036 4.60527 9.07456 4.5 8.75 4.5H4.5C3.67157 4.5 3 5.17157 3 6V18C3 18.8284 3.67157 19.5 4.5 19.5H19.5C20.3284 19.5 21 18.8284 21 18ZM4.5 3C2.84315 3 1.5 4.34315 1.5 6V18C1.5 19.6569 2.84315 21 4.5 21H19.5C21.1569 21 22.5 19.6569 22.5 18V8.25C22.5 6.59315 21.1569 5.25 19.5 5.25H12.85C12.7851 5.25 12.7219 5.22895 12.67 5.19L10.55 3.6C10.0307 3.21053 9.39911 3 8.75 3H4.5Z" fill="#0F0F0F"/>
</g>
</svg>

<svg xmlns="http://www.w3.org/2000/svg" width="24" height="24" viewBox="0 0 24 24">
  <g class="ic-folder">
    <path fill-rule="evenodd" d="M21 18V8.25a1.5 1.5 0 0 0-1.5-1.5h-6.65a1.8 1.8 0 0 1-1.08-.36L9.65 4.8a1.5 1.5 0 0 0-.9-.3H4.5A1.5 1.5 0 0 0 3 6v12a1.5 1.5 0 0 0 1.5 1.5h15A1.5 1.5 0 0 0 21 18ZM4.5 3a3 3 0 0 0-3 3v12a3 3 0 0 0 3 3h15a3 3 0 0 0 3-3V8.25a3 3 0 0 0-3-3h-6.65a.3.3 0 0 1-.18-.06L10.55 3.6a3 3 0 0 0-1.8-.6H4.5Z" class="Icon"/>
  </g>
</svg>
